res/logo/reddit-colour.svg

<?xml version="1.0" encoding="UTF-8"?>
<svg width="256px" height="256px" viewBox="0 0 256 256" version="1.1" xmlns="http://www.w3.org/2000/svg" xmlns:xlink="http://www.w3.org/1999/xlink" preserveAspectRatio="xMidYMid">
    <g>
        <circle fill="#FF4500" cx="128" cy="128" r="128"></circle>
        <path d="M213.149867,129.220267 C213.149867,118.843733 204.758756,110.603378 194.532978,110.603378 C189.498311,110.603378 184.918756,112.585956 181.562311,115.791644 C168.745244,106.635378 151.195022,100.6848 131.662222,99.9224889 L140.206933,59.9409778 L167.980089,65.8915556 C168.287289,72.9116444 174.084267,78.5578667 181.257956,78.5578667 C188.5824,78.5578667 194.532978,72.6072889 194.532978,65.28 C194.532978,57.9555556 188.5824,52.0049778 181.257956,52.0049778 C176.069689,52.0049778 171.490133,55.0570667 169.353956,59.4830222 L138.377956,52.9208889 C137.462044,52.7672889 136.546133,52.9208889 135.934578,53.3788444 C135.172267,53.8368 134.714311,54.5991111 134.563556,55.5150222 L125.100089,100.073244 C105.262933,100.6848 87.4083556,106.635378 74.4376889,115.945244 C71.0812444,112.739556 66.5016889,110.756978 61.4670222,110.756978 C51.0904889,110.756978 42.8501333,119.148089 42.8501333,129.373867 C42.8501333,137.002667 47.4268444,143.4112 53.8382222,146.312533 C53.5310222,148.141511 53.3802667,149.973333 53.3802667,151.958756 C53.3802667,180.644978 86.7996444,203.995022 128.001422,203.995022 C169.2032,203.995022 202.622578,180.798578 202.622578,151.958756 C202.622578,150.126933 202.468978,148.141511 202.164622,146.312533 C208.573156,143.4112 213.149867,136.849067 213.149867,129.220267 Z M85.2721778,142.495289 C85.2721778,135.170844 91.2227556,129.220267 98.5500444,129.220267 C105.874489,129.220267 111.825067,135.170844 111.825067,142.495289 C111.825067,149.819733 105.874489,155.773156 98.5500444,155.773156 C91.2227556,155.923911 85.2721778,149.819733 85.2721778,142.495289 Z M159.588978,177.746489 C150.432711,186.902756 133.036089,187.514311 128.001422,187.514311 C122.813156,187.514311 105.416533,186.749156 96.4110222,177.746489 C95.04,176.372622 95.04,174.236444 96.4110222,172.862578 C97.7848889,171.491556 99.9210667,171.491556 101.294933,172.862578 C107.094756,178.6624 119.303111,180.644978 128.001422,180.644978 C136.699733,180.644978 149.058844,178.6624 154.705067,172.862578 C156.078933,171.491556 158.215111,171.491556 159.588978,172.862578 C160.809244,174.236444 160.809244,176.372622 159.588978,177.746489 Z M157.1456,155.923911 C149.821156,155.923911 143.870578,149.973333 143.870578,142.648889 C143.870578,135.324444 149.821156,129.373867 157.1456,129.373867 C164.472889,129.373867 170.423467,135.324444 170.423467,142.648889 C170.423467,149.819733 164.472889,155.923911 157.1456,155.923911 Z" fill="#FFFFFF" fill-rule="nonzero"></path>
    </g>
</svg>

<?xml version="1.0" encoding="UTF-8" standalone="no"?>
<svg
   width="256px"
   height="256px"
   viewBox="0 0 256 256"
   version="1.1"
   preserveAspectRatio="xMidYMid"
   id="svg8"
   sodipodi:docname="reddit-colour.svg"
   inkscape:version="1.1.2 (0a00cf5339, 2022-02-04)"
   xmlns:inkscape="http://www.inkscape.org/namespaces/inkscape"
   xmlns:sodipodi="http://sodipodi.sourceforge.net/DTD/sodipodi-0.dtd"
   xmlns="http://www.w3.org/2000/svg"
   xmlns:svg="http://www.w3.org/2000/svg">
  <defs
     id="defs12">
    <inkscape:path-effect
       effect="powerclip"
       id="path-effect378"
       is_visible="true"
       lpeversion="1"
       inverse="true"
       flatten="false"
       hide_clip="false"
       message="Use fill-rule evenodd on &lt;b&gt;fill and stroke&lt;/b&gt; dialog if no flatten result after convert clip to paths." />
    <clipPath
       clipPathUnits="userSpaceOnUse"
       id="clipPath374">
      <path
         d="m 213.14987,129.22027 c 0,-10.37654 -8.39111,-18.61689 -18.61689,-18.61689 -5.03467,0 -9.61422,1.98258 -12.97067,5.18826 -12.81707,-9.15626 -30.36729,-15.10684 -49.90009,-15.869151 l 8.54471,-39.981511 27.77316,5.950578 c 0.3072,7.020088 6.10418,12.666311 13.27787,12.666311 7.32444,0 13.27502,-5.950578 13.27502,-13.277867 0,-7.324444 -5.95058,-13.275022 -13.27502,-13.275022 -5.18827,0 -9.76783,3.052089 -11.904,7.478044 l -30.976,-6.562133 c -0.91592,-0.1536 -1.83183,0 -2.44338,0.457955 -0.76231,0.457956 -1.22027,1.220267 -1.37102,2.136178 l -9.46347,44.558218 c -19.83716,0.61156 -37.691734,6.56214 -50.662401,15.872 -3.356445,-3.20568 -7.936,-5.18826 -12.970667,-5.18826 -10.376533,0 -18.616889,8.39111 -18.616889,18.61689 0,7.6288 4.576711,14.03733 10.988089,16.93866 -0.3072,1.82898 -0.457955,3.6608 -0.457955,5.64623 0,28.68622 33.419377,52.03626 74.621153,52.03626 41.20178,0 74.62116,-23.19644 74.62116,-52.03626 0,-1.83183 -0.1536,-3.81725 -0.45796,-5.64623 6.40854,-2.90133 10.98525,-9.46346 10.98525,-17.09226 z"
         id="path376"
         style="display:none" />
      <path
         id="lpe_path-effect378"
         class="powerclip"
         d="M -5,-5 H 261 V 261 H -5 Z m 218.14987,134.22027 c 0,-10.37654 -8.39111,-18.61689 -18.61689,-18.61689 -5.03467,0 -9.61422,1.98258 -12.97067,5.18826 -12.81707,-9.15626 -30.36729,-15.10684 -49.90009,-15.869151 l 8.54471,-39.981511 27.77316,5.950578 c 0.3072,7.020088 6.10418,12.666311 13.27787,12.666311 7.32444,0 13.27502,-5.950578 13.27502,-13.277867 0,-7.324444 -5.95058,-13.275022 -13.27502,-13.275022 -5.18827,0 -9.76783,3.052089 -11.904,7.478044 l -30.976,-6.562133 c -0.91592,-0.1536 -1.83183,0 -2.44338,0.457955 -0.76231,0.457956 -1.22027,1.220267 -1.37102,2.136178 l -9.46347,44.558218 c -19.83716,0.61156 -37.691734,6.56214 -50.662401,15.872 -3.356445,-3.20568 -7.936,-5.18826 -12.970667,-5.18826 -10.376533,0 -18.616889,8.39111 -18.616889,18.61689 0,7.6288 4.576711,14.03733 10.988089,16.93866 -0.3072,1.82898 -0.457955,3.6608 -0.457955,5.64623 0,28.68622 33.419377,52.03626 74.621153,52.03626 41.20178,0 74.62116,-23.19644 74.62116,-52.03626 0,-1.83183 -0.1536,-3.81725 -0.45796,-5.64623 6.40854,-2.90133 10.98525,-9.46346 10.98525,-17.09226 z" />
    </clipPath>
  </defs>
  <sodipodi:namedview
     id="namedview10"
     pagecolor="#ffffff"
     bordercolor="#666666"
     borderopacity="1.0"
     inkscape:pageshadow="2"
     inkscape:pageopacity="0.0"
     inkscape:pagecheckerboard="0"
     showgrid="false"
     showguides="false"
     inkscape:zoom="3.0546875"
     inkscape:cx="61.217391"
     inkscape:cy="128"
     inkscape:window-width="1920"
     inkscape:window-height="980"
     inkscape:window-x="0"
     inkscape:window-y="64"
     inkscape:window-maximized="1"
     inkscape:current-layer="g6" />
  <g
     id="g6">
    <path
       fill="#ff4500"
       id="circle2"
       clip-path="url(#clipPath374)"
       inkscape:path-effect="#path-effect378"
       sodipodi:type="arc"
       sodipodi:cx="128"
       sodipodi:cy="128"
       sodipodi:rx="128"
       sodipodi:ry="128"
       d="M 256,128 A 128,128 0 0 1 128,256 128,128 0 0 1 0,128 128,128 0 0 1 128,0 128,128 0 0 1 256,128 Z" />
    <path
       d="m 157.1456,155.92391 c -7.32444,0 -13.27502,-5.95058 -13.27502,-13.27502 0,-7.32445 5.95058,-13.27502 13.27502,-13.27502 7.32729,0 13.27787,5.95057 13.27787,13.27502 0,7.17084 -5.95058,13.27502 -13.27787,13.27502 z"
       id="path268"
       style="fill:#ff4500;fill-opacity:1" />
    <path
       d="m 159.58898,177.74649 c -9.15627,9.15627 -26.55289,9.76782 -31.58756,9.76782 -5.18826,0 -22.58489,-0.76515 -31.590398,-9.76782 -1.371022,-1.37387 -1.371022,-3.51005 0,-4.88391 1.373867,-1.37102 3.510045,-1.37102 4.883908,0 5.79983,5.79982 18.00818,7.7824 26.70649,7.7824 8.69831,0 21.05742,-1.98258 26.70365,-7.7824 1.37386,-1.37102 3.51004,-1.37102 4.88391,0 1.22026,1.37386 1.22026,3.51004 0,4.88391 z"
       id="path266"
       style="fill:#ff4500;fill-opacity:1" />
    <path
       d="m 85.272178,142.49529 c 0,-7.32445 5.950578,-13.27502 13.277866,-13.27502 7.324446,0 13.275026,5.95057 13.275026,13.27502 0,7.32444 -5.95058,13.27787 -13.275026,13.27787 -7.327288,0.15075 -13.277866,-5.95343 -13.277866,-13.27787 z"
       id="path264"
       style="fill:#ff4500;fill-opacity:1" />
  </g>
</svg>
